packages/tokens/icons/size/size24Px.svg

<svg viewBox="0 0 24 24" fill="none" xmlns="http://www.w3.org/2000/svg" width="1em" height="1em"><path fill-rule="evenodd" clip-rule="evenodd" d="M9.85355 9.14645L4.70711 4L9.5 4C9.77614 4 10 3.77614 10 3.5C10 3.22386 9.77614 3 9.5 3L3.5 3C3.22386 3 3 3.22386 3 3.5L3 9.5C3 9.77614 3.22386 10 3.5 10C3.77614 10 4 9.77614 4 9.5L4 4.70711L9.14645 9.85355C9.34171 10.0488 9.65829 10.0488 9.85355 9.85355C10.0488 9.65829 10.0488 9.34171 9.85355 9.14645ZM14.8536 9.85355L20 4.70711V9.5C20 9.77614 20.2239 10 20.5 10C20.7761 10 21 9.77614 21 9.5V3.5C21 3.22386 20.7761 3 20.5 3L14.5 3C14.2239 3 14 3.22386 14 3.5C14 3.77614 14.2239 4 14.5 4L19.2929 4L14.1464 9.14645C13.9512 9.34171 13.9512 9.65829 14.1464 9.85355C14.3417 10.0488 14.6583 10.0488 14.8536 9.85355ZM19.2929 19L14.1464 13.8536C13.9512 13.6583 13.9512 13.3417 14.1464 13.1464C14.3417 12.9512 14.6583 12.9512 14.8536 13.1464L20 18.2929L20 13.5C20 13.2239 20.2239 13 20.5 13C20.7761 13 21 13.2239 21 13.5L21 19.5C21 19.7761 20.7761 20 20.5 20H14.5C14.2239 20 14 19.7761 14 19.5C14 19.2239 14.2239 19 14.5 19H19.2929ZM4.70711 19L9.85355 13.8536C10.0488 13.6583 10.0488 13.3417 9.85355 13.1464C9.65829 12.9512 9.34171 12.9512 9.14645 13.1464L4 18.2929L4 13.5C4 13.2239 3.77614 13 3.5 13C3.22386 13 3 13.2239 3 13.5L3 19.5C3 19.7761 3.22386 20 3.5 20H9.5C9.77614 20 10 19.7761 10 19.5C10 19.2239 9.77614 19 9.5 19H4.70711Z" fill="currentColor"/></svg>

<svg xmlns="http://www.w3.org/2000/svg" fill="none" viewBox="0 0 24 24" width="1em" height="1em"><path fill="currentColor" fill-rule="evenodd" d="M9.854 9.146 4.707 4H9.5a.5.5 0 0 0 0-1h-6a.5.5 0 0 0-.5.5v6a.5.5 0 0 0 1 0V4.707l5.146 5.147a.5.5 0 0 0 .708-.708Zm5 .708L20 4.707V9.5a.5.5 0 0 0 1 0v-6a.5.5 0 0 0-.5-.5h-6a.5.5 0 0 0 0 1h4.793l-5.147 5.146a.5.5 0 0 0 .708.708ZM19.293 19l-5.147-5.146a.5.5 0 0 1 .708-.708L20 18.293V13.5a.5.5 0 0 1 1 0v6a.5.5 0 0 1-.5.5h-6a.5.5 0 0 1 0-1h4.793ZM4.707 19l5.147-5.146a.5.5 0 0 0-.708-.708L4 18.293V13.5a.5.5 0 0 0-1 0v6a.5.5 0 0 0 .5.5h6a.5.5 0 0 0 0-1H4.707Z" clip-rule="evenodd"/></svg>
